X:1
T: The Auld Wheel
T: Mill o' Hirn, Crathes
C:J. Scott Skinner
R:Reel
I:speed 232
Q:232
K:D
M:4/4
L:1/8
|:A|d1/2d1/2d AG FG Ad|B1/2B1/2B ed cA Ac|d1/2d1/2d AF GA Bd|cd ec dD DA|
d1/2d1/2d AG FG Ad|B1/2B1/2B ed cA Ac|d1/2d1/2d AF GA Bg|fe dc dD Dg|
fD FA df af|eE GB ef ge|fD FA df af|ef ga fd dg|
fD FA df af|eE GB ef ga|ba gf ed cB|1AG FE DA Bc:|2AG FE D3||
